X:1
T:Title
L:1/8
Q:1/4=120
M:4/4
K:Eb
V:1 treble nm="Church Organ, Staff"
V:1
 C2 E2- E/ z/ F G2 | A2 B2- B/ z/ c B2 | B2 E2- E/ z/ F G2 | B2 c2- c/ z/ d c2 | e2 A2 B2 AG | %5
w: By~Arthur~Henry~Brown * * * *|||||
 FE B6 | B2 c2- c/ z/ d e2 | c2 B2 AG F2 | C2 FG A2 G2 | B2 A2 G2 F2 | c2 FA GF E2 | D2 E6 |] %12
w: |||||||

